assets/logos/alexa.svg

<svg width="80" height="80" viewBox="0 0 80 80" fill="none" xmlns="http://www.w3.org/2000/svg">
<path fill-rule="evenodd" clip-rule="evenodd" d="M40.1419 8C31.9852 8.0118 24.1371 11.1199 18.1839 16.696C12.2308 22.2721 8.61661 29.9003 8.0719 38.0389C7.52719 46.1774 10.0926 54.2193 15.2496 60.539C20.4065 66.8586 27.7704 70.9848 35.8529 72.0835V65.5961C35.857 64.7036 35.5807 63.8324 35.063 63.1055C34.5452 62.3785 33.8122 61.8325 32.9675 61.5447C29.0384 60.224 25.5498 57.8449 22.8856 54.6694C20.2215 51.4938 18.485 47.6447 17.8674 43.5459C17.2498 39.447 17.775 35.2572 19.3851 31.4376C20.9953 27.618 23.628 24.3166 26.9935 21.8968C30.359 19.477 34.3268 18.0326 38.4604 17.7225C42.5939 17.4125 46.7328 18.2488 50.4217 20.1394C54.1105 22.03 57.2062 24.9017 59.3682 28.4384C61.5302 31.975 62.6745 36.0396 62.6753 40.1847C62.6753 40.4669 62.6753 40.7455 62.6753 41.024C62.6753 41.0871 62.6753 41.1502 62.6753 41.2134C62.6753 41.4733 62.6456 41.7295 62.627 41.9895L62.6048 42.2309C62.6048 42.4128 62.5713 42.6022 62.5491 42.7693C62.5268 42.9364 62.5008 43.1704 62.4711 43.3709C62.4711 43.4637 62.4488 43.5528 62.4339 43.6457C59.6748 61.8157 36.0237 72.0278 35.8937 72.0835C37.3144 72.2715 38.746 72.3657 40.1791 72.3657C48.6546 72.2699 56.7503 68.8345 62.7081 62.8055C68.6659 56.7765 72.0049 48.6406 72 40.1645C71.9951 31.6884 68.6467 23.5564 62.682 17.5342C56.7172 11.5121 48.6176 8.08602 40.1419 8" fill="#5FCAF4"/>
</svg>

<svg xmlns="http://www.w3.org/2000/svg" width="80" height="80" fill="none" viewBox="0 0 80 80"><path fill="#5fcaf4" fill-rule="evenodd" d="M40.142 8a32.189 32.189 0 0 0-4.29 64.084v-6.488a4.26 4.26 0 0 0-2.884-4.051 22.531 22.531 0 0 1 5.492-43.822 22.53 22.53 0 0 1 24.215 22.462v1.029c0 .26-.03.516-.048.776l-.022.24c0 .183-.034.372-.056.54-.022.166-.048.4-.078.6 0 .094-.022.183-.037.276-2.76 18.17-26.41 28.382-26.54 28.438 1.42.188 2.852.282 4.285.282A32.185 32.185 0 0 0 40.142 8" clip-rule="evenodd"/></svg>
